X:242
T:Feargan
R:Reel
N:See "Bird's Nest" for a Canadian variant.
B:The Athole Collection
M:C|
L:1/8
K:A Minor
cA A/A/A E2 EG|A2AB cded|cA A/A/A E2 E^F|GABc dBGB:|
|:c2cd e^fge|c2ce dBGB|c2cd e^fge|a^fge dBGB:|

